svg/emoji_u1f469_1f3fc.svg

<svg xmlns="http://www.w3.org/2000/svg" viewBox="0 0 128 128" width="512px" height="512px"><path d="M118.5 55.8l-53.48-2.22-1.02-.02-1.02.02L9.5 55.8s-.27 25.78 3.16 48.84c2.55 17.15 2.99 19.87 15.19 18.47 17.52-2.01 26.24-4.48 35.66-4.5.16 0 .33.01.49.01.16 0 .33-.01.49-.01 9.42.01 18.15 2.49 35.66 4.5 12.2 1.4 12.64-1.32 15.19-18.47 3.43-23.06 3.16-48.84 3.16-48.84z" fill="#bfa055"/><ellipse cx="64" cy="56.06" rx="54.5" ry="50.3" fill="#bfa055"/><path d="M64.17 14.87c-33.11 0-42.95 23.36-42.95 58.91 0 35.56 26.86 48.36 42.95 48.36 16.09 0 42.61-13.14 42.61-48.69 0-35.56-9.5-58.58-42.61-58.58z" fill="#e0bb95"/><path d="M49.91 77.19c0 3.81-2.55 6.9-5.71 6.9s-5.73-3.09-5.73-6.9c0-3.82 2.57-6.91 5.73-6.91 3.16 0 5.71 3.09 5.71 6.91M78.08 77.19c0 3.81 2.56 6.9 5.72 6.9 3.15 0 5.72-3.09 5.72-6.9 0-3.82-2.57-6.91-5.72-6.91-3.16 0-5.72 3.09-5.72 6.91" fill="#444"/><path d="M76.46 42.76c-4.34 4.17-25.9 23.6-55.62 28.68V31.6S33.67 6.15 64.45 6.15s43.61 26.09 43.61 26.09v39.2s-20.17-7.74-30.3-28.43c-.25-.51-.9-.64-1.3-.25z" fill="#bfa055"/><path d="M76.38 100.52H64 51.62c-1.42 0-2.03.95-1.09 2.38 1.31 2 6.19 5.85 13.47 5.85s12.16-3.85 13.47-5.85c.94-1.43.33-2.38-1.09-2.38z" fill="#513f35"/><path d="M69.98 89.99c-2.11.6-4.29.89-5.98.89-1.69 0-3.87-.29-5.98-.89-.9-.26-1.25.6-.93 1.17.67 1.18 3.36 3.55 6.91 3.55 3.55 0 6.24-2.37 6.91-3.55.33-.57-.03-1.42-.93-1.17z" fill="#e59600"/><path d="M76.46 42.76c-4.34 4.17-25.9 23.6-55.62 28.68V31.6S33.67 6.15 64.45 6.15s43.61 26.09 43.61 26.09v39.2s-20.17-7.74-30.3-28.43c-.25-.51-.9-.64-1.3-.25z" fill="#bfa055"/><g fill="#5d4037"><path d="M49.91 77.19c0 3.81-2.55 6.9-5.71 6.9s-5.73-3.09-5.73-6.9c0-3.82 2.57-6.91 5.73-6.91 3.16 0 5.71 3.09 5.71 6.91M78.08 77.19c0 3.81 2.56 6.9 5.72 6.9 3.15 0 5.72-3.09 5.72-6.9 0-3.82-2.57-6.91-5.72-6.91-3.16 0-5.72 3.09-5.72 6.91"/></g><path d="M76.38 100.52H64 51.62c-1.42 0-2.03.95-1.09 2.38 1.31 2 6.19 5.85 13.47 5.85s12.16-3.85 13.47-5.85c.94-1.43.33-2.38-1.09-2.38z" fill="#513f35"/><path d="M69.98 89.99c-2.11.6-4.29.89-5.98.89-1.69 0-3.87-.29-5.98-.89-.9-.26-1.25.6-.93 1.17.67 1.18 3.36 3.55 6.91 3.55 3.55 0 6.24-2.37 6.91-3.55.33-.57-.03-1.42-.93-1.17z" fill="#c48e6a"/></svg>

<?xml version="1.0" encoding="utf-8"?>
<!-- Generator: Adobe Illustrator 19.2.1, SVG Export Plug-In . SVG Version: 6.00 Build 0)  -->
<svg version="1.1" xmlns="http://www.w3.org/2000/svg" xmlns:xlink="http://www.w3.org/1999/xlink" x="0px" y="0px"
	 viewBox="0 0 128 128" style="enable-background:new 0 0 128 128;" xml:space="preserve">
<g id="Layer_2">
</g>
<g id="图层_1">
	<g>
		<path id="XMLID_1762_" style="fill:#BFA055;" d="M118.5,55.8l-53.48-2.22L64,53.56l0,0l0,0h0l0,0l-1.02,0.02L9.5,55.8
			c0,0-0.27,25.78,3.16,48.84c2.55,17.15,2.99,19.87,15.19,18.47c17.52-2.01,26.24-4.48,35.66-4.5c0.16,0,0.33,0.01,0.49,0.01l0,0h0
			l0,0l0,0c0.16,0,0.33-0.01,0.49-0.01c9.42,0.01,18.15,2.49,35.66,4.5c12.2,1.4,12.64-1.32,15.19-18.47
			C118.77,81.58,118.5,55.8,118.5,55.8z"/>
		<ellipse id="XMLID_201_" style="fill:#BFA055;" cx="64" cy="56.06" rx="54.5" ry="50.3"/>
		<path id="XMLID_200_" style="fill:#E0BB95;" d="M64.17,14.87c-33.11,0-42.95,23.36-42.95,58.91c0,35.56,26.86,48.36,42.95,48.36
			c16.09,0,42.61-13.14,42.61-48.69C106.78,37.89,97.28,14.87,64.17,14.87z"/>
		<path id="XMLID_196_" style="fill:#444444;" d="M49.91,77.19c0,3.81-2.55,6.9-5.71,6.9c-3.16,0-5.73-3.09-5.73-6.9
			c0-3.82,2.57-6.91,5.73-6.91C47.36,70.28,49.91,73.37,49.91,77.19"/>
		<path id="XMLID_195_" style="fill:#444444;" d="M78.08,77.19c0,3.81,2.56,6.9,5.72,6.9c3.15,0,5.72-3.09,5.72-6.9
			c0-3.82-2.57-6.91-5.72-6.91C80.64,70.28,78.08,73.37,78.08,77.19"/>
		<path id="XMLID_194_" style="fill:#BFA055;" d="M76.46,42.76c-4.34,4.17-25.9,23.6-55.62,28.68V31.6c0,0,12.83-25.45,43.61-25.45
			s43.61,26.09,43.61,26.09v39.2c0,0-20.17-7.74-30.3-28.43C77.51,42.5,76.86,42.37,76.46,42.76z"/>
		<path id="XMLID_192_" style="fill:#513F35;" d="M76.38,100.52c-1.73,0-12.38,0-12.38,0s-10.65,0-12.38,0
			c-1.42,0-2.03,0.95-1.09,2.38c1.31,2,6.19,5.85,13.47,5.85s12.16-3.85,13.47-5.85C78.41,101.47,77.8,100.52,76.38,100.52z"/>
		<path id="XMLID_160_" style="fill:#E59600;" d="M69.98,89.99c-2.11,0.6-4.29,0.89-5.98,0.89c-1.69,0-3.87-0.29-5.98-0.89
			c-0.9-0.26-1.25,0.6-0.93,1.17c0.67,1.18,3.36,3.55,6.91,3.55c3.55,0,6.24-2.37,6.91-3.55C71.24,90.59,70.88,89.74,69.98,89.99z"
			/>
		<path id="XMLID_802_" style="fill:#BFA055;" d="M76.46,42.76c-4.34,4.17-25.9,23.6-55.62,28.68V31.6c0,0,12.83-25.45,43.61-25.45
			s43.61,26.09,43.61,26.09v39.2c0,0-20.17-7.74-30.3-28.43C77.51,42.5,76.86,42.37,76.46,42.76z"/>
		<g>
			<path id="XMLID_806_" style="fill:#5D4037;" d="M49.91,77.19c0,3.81-2.55,6.9-5.71,6.9c-3.16,0-5.73-3.09-5.73-6.9
				c0-3.82,2.57-6.91,5.73-6.91C47.36,70.28,49.91,73.37,49.91,77.19"/>
			<path id="XMLID_803_" style="fill:#5D4037;" d="M78.08,77.19c0,3.81,2.56,6.9,5.72,6.9c3.15,0,5.72-3.09,5.72-6.9
				c0-3.82-2.57-6.91-5.72-6.91C80.64,70.28,78.08,73.37,78.08,77.19"/>
		</g>
		<path id="XMLID_798_" style="fill:#513F35;" d="M76.38,100.52c-1.73,0-12.38,0-12.38,0s-10.65,0-12.38,0
			c-1.42,0-2.03,0.95-1.09,2.38c1.31,2,6.19,5.85,13.47,5.85c7.28,0,12.16-3.85,13.47-5.85C78.41,101.47,77.8,100.52,76.38,100.52z"
			/>
		<path id="XMLID_793_" style="fill:#C48E6A;" d="M69.98,89.99c-2.11,0.6-4.29,0.89-5.98,0.89c-1.69,0-3.87-0.29-5.98-0.89
			c-0.9-0.26-1.25,0.6-0.93,1.17c0.67,1.18,3.36,3.55,6.91,3.55c3.55,0,6.24-2.37,6.91-3.55C71.24,90.59,70.88,89.74,69.98,89.99z"
			/>
	</g>
</g>
</svg>
